build/finance/CardOutline.svg

<svg xmlns="http://www.w3.org/2000/svg" fill="none" viewBox="0 0 24 24" focusable="false"><path d="M0 0H24V24H0z"/><path fill="#74767B" fill-rule="evenodd" d="M3 16C3 17.6569 4.34314 19 6 19L18 19C19.6569 19 21 17.6569 21 16L21 8C21 6.4467 19.8195 5.16912 18.3067 5.01549C18.2059 5.00525 18.1036 5 18 5L6 5C4.34315 5 3 6.34315 3 8L3 16ZM18 6.3C18.9389 6.3 19.7 7.06112 19.7 8L19.7 16C19.7 16.9389 18.9389 17.7 18 17.7L6 17.7C5.06112 17.7 4.3 16.9389 4.3 16L4.3 8C4.3 7.06112 5.06112 6.3 6 6.3L18 6.3ZM6.96859 8.12488C6.44391 8.12488 6.01859 8.55021 6.01859 9.07488L6.01859 11.4917C6.01859 12.0163 6.44392 12.4417 6.96859 12.4417L9.30683 12.4417C9.8315 12.4417 10.2568 12.0163 10.2568 11.4916L10.2568 9.07488C10.2568 8.55021 9.8315 8.12488 9.30683 8.12488L6.96859 8.12488ZM7.31859 11.1417L7.31859 9.42488L8.95683 9.42488L8.95683 11.1417L7.31859 11.1417ZM6.01859 15.448C6.01859 15.089 6.3096 14.798 6.66859 14.798L8.3615 14.798C8.72048 14.798 9.0115 15.089 9.0115 15.448C9.0115 15.807 8.72048 16.098 8.3615 16.098L6.66859 16.098C6.3096 16.098 6.01859 15.807 6.01859 15.448ZM10.5036 15.448C10.5036 15.089 10.7946 14.798 11.1536 14.798L12.8465 14.798C13.2055 14.798 13.4965 15.089 13.4965 15.448C13.4965 15.807 13.2055 16.098 12.8465 16.098L11.1536 16.098C10.7946 16.098 10.5036 15.807 10.5036 15.448ZM15.0148 15.448C15.0148 15.089 15.3058 14.798 15.6648 14.798L17.3577 14.798C17.7167 14.798 18.0077 15.089 18.0077 15.448C18.0077 15.807 17.7167 16.098 17.3577 16.098L15.6648 16.098C15.3058 16.098 15.0148 15.807 15.0148 15.448Z"/></svg>

<svg xmlns="http://www.w3.org/2000/svg" fill="none" viewBox="0 0 24 24" focusable="false"><path fill="#74767B" fill-rule="evenodd" d="M3 16c0 1.65 1.34 3 3 3h12c1.65 0 3-1.35 3-3V8c0-1.56-1.19-2.84-2.7-2.99C18.2 5 18.1 5 18 5H6C4.34 5 3 6.34 3 8zm15-9.71c.93 0 1.7.77 1.7 1.71v8c0 .93-.77 1.7-1.7 1.7H6c-.94 0-1.7-.77-1.7-1.7V8c0-.94.76-1.71 1.7-1.71zM6.96 8.12c-.52 0-.95.43-.95.95v2.42c0 .52.43.95.95.95H9.3c.53 0 .95-.43.95-.95V9.07a.95.95 0 0 0-.95-.95zm.35 3.02V9.42h1.64v1.72zm-1.3 4.3c0-.36.29-.65.65-.65h1.7c.36 0 .65.29.65.65s-.29.65-.65.65h-1.7c-.36 0-.65-.29-.65-.65m4.49 0c0-.36.29-.65.65-.65h1.69c.36 0 .65.29.65.65s-.29.65-.65.65h-1.69c-.36 0-.65-.29-.65-.65m4.51 0c0-.36.29-.65.65-.65h1.69c.36 0 .65.29.65.65s-.29.65-.65.65h-1.69c-.36 0-.65-.29-.65-.65"/></svg>
